brandFactory_export/1.Light/Quimica_1Light.svg

<?xml version="1.0" encoding="UTF-8"?>
<svg width="24px" height="24px" viewBox="0 0 24 24" version="1.1" xmlns="http://www.w3.org/2000/svg" xmlns:xlink="http://www.w3.org/1999/xlink">
    <title>1.Light/Quimica_1Light</title>
    <g id="Symbols" stroke="none" stroke-width="1" fill="none" fill-rule="evenodd">
        <g id="1.Light/Quimica_1Light" fill="#5CB615" fill-rule="nonzero">
            <path d="M22.5983193,22.4773109 C22.6184874,22.4369748 22.6487395,22.3563025 22.5882353,22.2554622 L15.6403361,13.0722689 C14.5647059,13.3882353 13.1697479,13.5596639 11.7042017,13.5596639 C10.3394958,13.5596639 9.03865546,13.4084034 8.00672269,13.1327731 L1.06554622,22.4168067 C1.05546218,22.4470588 1.06554622,22.497479 1.08571429,22.5310924 C1.10588235,22.5714286 1.14621849,22.6117647 1.21008403,22.6117647 L22.3697479,22.6117647 C22.5042017,22.6084034 22.5781513,22.5176471 22.5983193,22.4773109 L22.5983193,22.4773109 Z M9.32773109,11.3546218 L8.66890756,12.2386555 C10.5277311,12.6352941 13.1798319,12.6151261 14.9680672,12.1882353 L14.3394958,11.3546218 C14.2756303,11.2739496 14.2352941,11.1630252 14.2352941,11.0588235 L14.2352941,1.01176471 L9.43193277,1.01176471 L9.43193277,9.83865546 C9.44201681,9.8789916 9.43193277,9.91932773 9.43193277,9.9697479 L9.43193277,11.0554622 C9.43193277,11.1630252 9.39159664,11.2739496 9.32773109,11.3546218 Z M23.4352941,21.6739496 C23.7142857,22.1008403 23.7243697,22.5680672 23.4957983,22.9714286 C23.2672269,23.3781513 22.8436975,23.6201681 22.3697479,23.6201681 L1.21008403,23.6201681 C0.786554622,23.6201681 0.396638655,23.3983193 0.188235294,23.0319328 C-0.0302521008,22.6554622 -0.0168067227,22.2184874 0.208403361,21.8554622 L8.4,10.887395 L8.4,9.97310924 C8.38991597,9.92268908 8.38991597,9.87226891 8.4,9.84201681 L8.4,1.01512605 L7.20336134,1.01512605 C6.92436975,1.01512605 6.68571429,0.783193277 6.68571429,0.507563025 C6.68571429,0.221848739 6.9210084,0 7.20336134,0 L16.497479,0 C16.7764706,0 17.0151261,0.221848739 17.0151261,0.507563025 C17.0151261,0.783193277 16.7764706,1.01512605 16.497479,1.01512605 L15.2672269,1.01512605 L15.2672269,10.887395 L23.4352941,21.6739496 Z M14.6689076,20.6151261 C14.9512605,20.6084034 16.087395,20.5042017 16.087395,19.1361345 C16.087395,17.7714286 14.9546218,17.6571429 14.6655462,17.6504202 L14.5210084,17.6504202 C14.2218487,17.6537815 13.1159664,17.7546218 13.1159664,19.1294118 C13.1159664,20.5042017 14.2352941,20.6117647 14.5344538,20.6151261 L14.6689076,20.6151261 L14.6689076,20.6151261 Z M14.6890756,16.6352941 C15.8957983,16.6621849 17.1193277,17.4487395 17.1193277,19.1361345 C17.1193277,20.8268908 15.8991597,21.6067227 14.6890756,21.6268908 L14.5176471,21.6268908 C13.3042017,21.610084 12.0806723,20.8302521 12.0806723,19.1260504 C12.0806723,17.4184874 13.3008403,16.6453782 14.5142857,16.6352941 L14.6890756,16.6352941 L14.6890756,16.6352941 Z M9.33445378,17.4789916 C9.49243697,17.4756303 10.1243697,17.4184874 10.1243697,16.6554622 C10.1243697,15.8991597 9.49579832,15.8352941 9.33109244,15.8319328 L9.25378151,15.8319328 C9.08907563,15.8352941 8.47058824,15.892437 8.47058824,16.6554622 C8.47058824,17.4184874 9.09579832,17.4789916 9.2605042,17.4823529 L9.28739496,17.4823529 C9.30420168,17.4823529 9.3210084,17.4789916 9.33445378,17.4789916 L9.33445378,17.4789916 Z M9.35462185,14.8201681 C10.2218487,14.8403361 11.1529412,15.4285714 11.1529412,16.6588235 C11.1529412,17.8991597 10.2184874,18.4806723 9.3512605,18.4941176 L9.24369748,18.4941176 C8.37310924,18.4806723 7.43865546,17.8991597 7.43865546,16.6521008 C7.43865546,15.4016807 8.37647059,14.8235294 9.24369748,14.8168067 L9.27394958,14.8168067 L9.35462185,14.8201681 L9.35462185,14.8201681 Z" id="Quimica_1Light"></path>
        </g>
    </g>
</svg>

<svg width="24" height="24" viewBox="0 0 24 24" xmlns="http://www.w3.org/2000/svg"><path d="M22.598 22.477a.217.217 0 00-.01-.222l-6.948-9.183c-1.075.316-2.47.488-3.936.488-1.365 0-2.665-.152-3.697-.427l-6.941 9.284c-.01.03 0 .08.02.114.02.04.06.08.124.08h21.16a.266.266 0 00.228-.134zM9.328 11.355l-.66.884c1.86.396 4.512.376 6.3-.05l-.629-.834a.494.494 0 01-.104-.296V1.012H9.432v8.827c.01.04 0 .08 0 .13v1.086c0 .108-.04.219-.104.3zm14.107 10.319c.28.427.29.894.06 1.297a1.274 1.274 0 01-1.125.65H1.21a1.17 1.17 0 01-1.022-.59 1.123 1.123 0 01.02-1.176L8.4 10.887v-.914a.284.284 0 010-.131V1.015H7.203a.52.52 0 01-.517-.507c0-.286.235-.508.517-.508h9.294c.28 0 .518.222.518.508a.52.52 0 01-.518.507h-1.23v9.872l8.168 10.787zm-8.766-1.059c.282-.007 1.418-.11 1.418-1.479 0-1.365-1.132-1.479-1.421-1.486h-.145c-.3.004-1.405.105-1.405 1.48 0 1.374 1.12 1.482 1.418 1.485h.135zm.02-3.98c1.207.027 2.43.814 2.43 2.501 0 1.69-1.22 2.47-2.43 2.49h-.171c-1.214-.016-2.437-.796-2.437-2.5 0-1.708 1.22-2.48 2.433-2.49h.175zm-5.355.844c.158-.003.79-.06.79-.824 0-.756-.628-.82-.793-.823h-.077c-.165.003-.783.06-.783.823 0 .763.625.824.79.827h.026c.017 0 .034-.003.047-.003zm.02-2.659c.868.02 1.799.609 1.799 1.839 0 1.24-.935 1.822-1.802 1.835h-.107c-.87-.013-1.805-.595-1.805-1.842 0-1.25.937-1.828 1.805-1.835h.03l.08.003z" fill="#5CB615" fill-rule="nonzero"/></svg>
